X:1
T:Playing Love
T:Playing Love 
T:The Legend of 1900
T:Ennio Morricone
%%score { ( 1 3 ) | ( 2 4 ) }
L:1/8
Q:1/4=80
M:3/4
K:D
V:1 treble nm="Piano" snm="Pno."
V:3 treble 
V:2 bass 
V:4 bass 
V:1
 z6 | z4 ^A,2 |[M:4/4] A,/4=C/4E/4G/4E/4F/4A/4=c/4 e/d/4c/4A/4F/4G/ z4 | %3
[M:3/4] z2 =c/4^c/4=f/4g/4_b/4_a/4g/4f/4 _e/4d/4[Q:1/4=60]=c/8_B/8_A/8G/8=F/8_E/8D/8=C/8_B,/8_A,/8G,/8F,/8 | %4
[K:D][M:4/4][Q:1/4=160] =F,2 F,/A,/=C/E/ _E2 (7:4:7F,/_A,/B,/E/B,/A,/F,/ | %5
 ^D,2 (7:4:7G,/_B,/_E/G/E/B,/G,/ (7:4:7A,=CEGFEC | %6
[Q:1/4=120] D2 (7:4:7D/=F/A/=c/A/F/D/ cG/4F/4E/4=C/4 (6:4:6^C/F/_B/_A/F/C/ | %7
[M:3/4][Q:1/4=90] [EFA]6 | !arpeggio![^Gce]4 d2 | [DGA]6 | D6 | E6 | !arpeggio![^A,^DF]6 | %13
[M:4/4] [E,F,A,]4 D2 F2 | ^D2 [Bd]2 [^GB]2 D2 | [B,D]2 [B,F]2 D2 B,2 | z8 ||[Q:1/4=100] z8 | %18
[M:3/4] (d2 e2 f2 |[M:4/4] A8) |[M:3/4] (f2 e2 d2 |[M:4/4] [Ge]8) | z2 (e2 [Fd]2 [Ec]2 | A8) | %24
[M:3/4] e2 f2 g2 |[M:4/4] f8 |[M:3/4] [fa]2 [db]2 [fa]2 |[M:4/4] d3 [Gg]3 a2- |[M:3/4] a4 [Ff]2 | %29
[M:4/4] [Ge]8 | z2 g2 f2 e2 |[M:3/4] c3 (d d2) | e4 d2 |[M:4/4] [DGB]4 B,2 D2 | [CEB]8 | %35
 z2 [Fd]2 [Ge]2 [Af]2 | [FA]8 |[M:3/4] [Af]2 [Ge]2 [Fd]2 |[M:4/4] [Ge]8 | z2 [Ge]2 [Fd]2 [Ec]2 | %40
 A8 |[M:3/4] [EAe]2 [FAf]2 [Ada]2 | [dfd']6 | z2 [dgd']2 [dfd'][ege'] | %44
[M:4/4] [efae']2 [dfad']2 [Adfa]2 [FAdf]2 | [Bdfb]4 z2 (3dfe | e2 d2 A2 F2 | E4 z ABA | %48
 [Aca]3 [Bdb] [Aca]2 [Ff] z | [DFBd]6 z2 | ([Gg]3 [A=ca] [G_Bg]2 [EGe]2 | [CFc]8) | d3 c e3 d | %53
 cded f3 e | z efe FEFG | ([Ec]8 | [Fd]8) :| %57
V:2
 (F,/4D/4A/4d/4a/4g/4d/4A/4) =F,/C/^G/4c/4^g/4f/4 (3c/A/F/=F/D/ | %1
 (C,/4^G,/4B,/4C/4=F/4^G/4B/4^d/4) (c/4G/4F/4^D/4C/4B,/4^A,/4=G,/4) z/ C,/=F,, | %2
[M:4/4] [F,,G,]4 (9:8:9E,,/4B,,/4G,/4D/4G/4A/4d/4g/4a/4 [=F,=C=Fg]2 |[M:3/4] A,, z [G,C=F]4 | %4
[K:D][M:4/4] z (3D,,/A,,/(D,/ D,2) C,,/_A,,/(C, C,2) | =C,,/G,,/=C, C,2 =F,,/C,/A, A,2 | %6
 z (3D,,/A,,/D,/ D,2 E,,/B,,/^G, A,,2 |[M:3/4] G,A, DF- F2 | [A,,=F]6 | A,6 | z A, G,4 | %11
 B,2 A,2 _B,2 | [C,C,^^F,]6 |[M:4/4] z2 A,,6 | ^B,2 F2 ^D2 A,2 | G,2 A,2 G,2 D,2 | C,,8 || %17
 z2 A,,2 E2 D2 |[M:3/4] D2 A,4 |[M:4/4] z2 A,,2 E2 D2 |[M:3/4] C2 B,2 A,2 | %21
[M:4/4] z2 A,,2 E,2 B,2 | D,,8 | z2 A,,2 E,2 B,2- |[M:3/4] B,4 E2 |[M:4/4] z2 A,,2 D,2 E2 | %26
[M:3/4] D2 =C2 [D,D]2 |[M:4/4] z2 D,2 G,4 |[M:3/4] D2 A,2 G,2 |[M:4/4] z2 D,2 A,2 G,2 | %30
 E4 [_B,D]4 |[M:3/4] z2 F,2 D2 | ^G,,2 E,B, D2 |[M:4/4] z2 E,6 | z4 A,,4 | z4 A,4 | z2 A,,2 E2 D2 | %37
[M:3/4] C2 B,2 A,2 |[M:4/4] z2 A,,2 E,2 B,2 | [D,,E]8 | z2 A,,2 E,4 |[M:3/4] [F,=C]4 [F,D]2 | %42
 z2 B,,F, D2 | z2 _B,,2 [G,_B,]G |[M:4/4] z A,,F,D z F,A,D | z F,B,D F2 B,2 | z F,A,D E D2 C | %47
 z E,G,D CD [CE]2 | z A,,F,D E D2 =C | z D,A, G,3 z2 | E,,B,,F,E, [G,_B,][A,=C][=B,D]D, | %51
 D,,A,,E,D, A, E3 | z [DF] [DF]2 z [EG] [EG]2 | z [DF] [DF]2 z [B,F] [B,F]2 | %54
 z [B,E] [B,E]2 [E,D]4 | z E, B,2 A,4 | z A,,D,A, E4 :| %57
V:3
 x6 | x6 |[M:4/4] x8 |[M:3/4] x6 |[K:D][M:4/4] x8 | x8 | x8 |[M:3/4] E6 | x6 | x6 | x6 | x6 | x6 | %13
[M:4/4] x8 | x8 | x8 | x8 || x8 |[M:3/4] x6 |[M:4/4] x8 |[M:3/4] x6 |[M:4/4] x8 | x8 | x8 | %24
[M:3/4] x6 |[M:4/4] x8 |[M:3/4] x6 |[M:4/4] x8 |[M:3/4] x6 |[M:4/4] x8 | x8 |[M:3/4] x6 | x6 | %33
[M:4/4] x8 | x8 | x8 | x8 |[M:3/4] x6 |[M:4/4] x8 | x8 | x8 |[M:3/4] x6 | x6 | x6 |[M:4/4] x8 | %45
 x8 | F4 z4 | x8 | x8 | x8 | x8 | x8 | x8 | x8 | ^d4 [GB]4 | x8 | x8 :| %57
V:4
 x6 | x6 |[M:4/4] x8 |[M:3/4] x6 |[K:D][M:4/4] x8 | x8 | x8 |[M:3/4] A,,4 z2 | x6 | x6 | B,,6 | %11
 C,6 | x6 |[M:4/4] x8 | A,,8 | x8 | x8 || D,,8- |[M:3/4] D,,6 |[M:4/4] D,,8- |[M:3/4] D,,6 | %21
[M:4/4] D,,8- | x8 | C,,8- |[M:3/4] C,,6 |[M:4/4] (=C,,8 |[M:3/4] =C,,6) |[M:4/4] B,,,8- | %28
[M:3/4] B,,,2 B,,4 |[M:4/4] (_B,,8 | _B,,8) |[M:3/4] A,,6 | x6 |[M:4/4] A,,8 | E,8 | D,,8 | D,,8 | %37
[M:3/4] D,,6 |[M:4/4] D,,8- | x8 | C,,6 (=C,,2 |[M:3/4] =C,,6) | B,,,6 | [_B,,,_B,,]6 | %44
[M:4/4] A,,,4 A,,4 | ^G,,8 | A,,8 | A,,8 | D,,8 | G,,6 F,,2 | x8 | x8 | B,4 _B,4 | A,4 ^G,4 | %54
 G,4 z4 | A,,8 | D,,8 :| %57

